icons/mdsvex.svg

<svg viewBox="0 0 24 24" fill="none" xmlns="http://www.w3.org/2000/svg"><path d="M2.25 15.75v-8h2l3 3 3-3h2v8h-2v-5.17l-3 3-3-3v5.17h-2Zm14-8h3v4h2.5l-4 4.5-4-4.5h2.5v-4Z" fill="#FF5722"/></svg>

<svg viewBox="0 0 24 24" fill="none" xmlns="http://www.w3.org/2000/svg">
  <path
    d="M2.25 15.75V7.75H4.25L7.25 10.75L10.25 7.75H12.25V15.75H10.25V10.58L7.25 13.58L4.25 10.58V15.75H2.25ZM16.25 7.75H19.25V11.75H21.75L17.75 16.25L13.75 11.75H16.25V7.75Z"
    fill="#FF5722" />
</svg>
